X:64
T: ALS DIE WUNDERSCHOENE ANNA
N: E0042J
O: Europa, Mitteleuropa, Deutschland, Westfalen
R: erzaehlendes Volks - Lied, Ritter -, Raeuber - Sage
M: 2/4
L: 1/8
K: Eb
EG | BBBB | AG
FG | BFFF | F2
EG | BBBB | AG
FG | BFFF | F2
ec | BBAF | E2
EE | c2cc | Bed
c | BBAF | E2
EG | B2DD | E2

